X:1
T:Title
%%score { 1 | 2 }
L:1/8
M:6/8
K:Ab
V:1 treble nm="Grand Piano"
V:2 bass 
V:1
 z3 z2[Q:1/4=100] E | [Ec][Ec][Ec] BAB | [Ec]3 [CA]3 | [FA][EG][DF] [CE]3 |[M:5/8] AGA B2- | %5
[M:1/8] B | E |[M:6/8] [Ec][Ec][Ec] BAB | [Ec]3 [CA]3 | FBA GcB | [CA]6 | e3 e2 c | %12
 [FB][FA][A,DF] [A,CE] [CEA]2 | [B,EG][B,EG][CA] [DGB]3 | AAB c3 | e3 e2 c | %16
 [FB][FA][A,DF] [A,CE] [CEA]2 | GGA B2 c |[M:5/8] [CA]-[CA]- [CA]3 |] %19
V:2
 z3 z2 E, | [A,,A,][A,,A,][A,,A,] [E,G,D][E,A,C][E,G,D] | [A,,A,]3 [A,,A,]3 | %3
 [D,A,][D,A,][D,A,] [A,,A,]3 |[M:5/8] [F,A,C][F,B,C][F,A,C] [E,G,E]2- |[M:1/8] [E,G,E] | E, | %7
[M:6/8] [A,,A,][A,,A,][A,,A,] [E,G,D][E,A,C][G,D] | [A,,A,]3 [A,,A,]3 | %9
 [D,A,D][D,F,D][D,B,D] [E,B,D][E,G,D][E,G,D] | [A,,A,]6 | [A,CA]3 [A,CA]2 [A,EA] | %12
 [D,D][D,D]D, A,, A,,2 | E,E,E, E,3 | [A,CE][A,CE][A,DE] [A,EA]3 | [A,CA]3 [A,CE]2 [A,E_G] | %16
 [D,D][D,D]D, A,, A,,2 | [E,B,E][E,B,E][E,CE] [E,DE]2 [E,G,E] |[M:5/8] [A,,A,]-[A,,A,]- [A,,A,]3 |] %19

